tools/download-figma-icons/icons/outlined-large/rfid-card.svg

<svg width="64" height="64" viewBox="0 0 64 64" fill="none" xmlns="http://www.w3.org/2000/svg">
<path fill-rule="evenodd" clip-rule="evenodd" d="M54.3386 10.0102C54.3706 10.0032 54.4026 10.0002 54.4316 10.0002C54.5456 10.0002 54.6376 10.0442 54.6996 10.0862C54.7766 10.1382 54.9116 10.2602 54.9546 10.4922L60.9886 43.0432C61.0506 43.3832 60.8516 43.7212 60.5536 43.7802L9.66063 53.9902C9.50463 54.0232 9.37763 53.9672 9.30063 53.9142C9.22363 53.8622 9.08763 53.7402 9.04463 53.5092L3.01163 20.9572C2.94963 20.6172 3.14863 20.2792 3.44663 20.2202L54.3386 10.0102ZM7.61863 56.3992C8.20463 56.7952 8.87663 57.0002 9.56363 57.0002C9.79163 57.0002 10.0226 56.9782 10.2506 56.9322L61.1436 46.7222C63.0456 46.3402 64.2986 44.4442 63.9376 42.4962L57.9046 9.94524C57.7256 8.97824 57.1836 8.14524 56.3796 7.60124C55.6006 7.07324 54.6656 6.88624 53.7486 7.06824L2.85663 17.2782C0.953626 17.6602 -0.298374 19.5562 0.0626264 21.5042L6.09563 54.0562C6.27463 55.0232 6.81663 55.8552 7.61863 56.3992ZM34.2676 40.2676C35.2446 39.2916 35.2446 37.7086 34.2676 36.7326C33.2906 35.7556 31.7086 35.7556 30.7326 36.7326C29.7556 37.7086 29.7556 39.2916 30.7326 40.2676C31.7086 41.2446 33.2906 41.2446 34.2676 40.2676ZM26.2959 35.7844C26.0049 35.7844 25.7119 35.7004 25.4539 35.5244C24.7689 35.0594 24.5909 34.1264 25.0569 33.4414C26.4069 31.4534 28.4519 30.1094 30.8139 29.6594C33.1809 29.2094 35.5709 29.7064 37.5589 31.0564C38.2439 31.5214 38.4219 32.4554 37.9559 33.1394C37.4899 33.8264 36.5559 34.0034 35.8729 33.5374C33.1389 31.6794 29.3999 32.3904 27.5369 35.1274C27.2469 35.5554 26.7749 35.7844 26.2959 35.7844ZM20.0779 31.7402C20.3359 31.9162 20.6289 32.0002 20.9199 32.0002C21.3989 32.0002 21.8709 31.7712 22.1609 31.3432C24.0269 28.5982 26.8849 26.7562 30.2069 26.1592C33.5229 25.5612 36.8789 26.2742 39.6569 28.1612C40.3399 28.6262 41.2739 28.4512 41.7399 27.7642C42.2059 27.0792 42.0279 26.1462 41.3429 25.6812C34.1889 20.8172 24.4709 22.6042 19.6809 29.6572C19.2149 30.3422 19.3929 31.2752 20.0779 31.7402Z" fill="black"/>
</svg>

<svg width="64" height="64" viewBox="0 0 64 64" fill="none" xmlns="http://www.w3.org/2000/svg"><path fill-rule="evenodd" clip-rule="evenodd" d="M54.339 10.01a.479.479 0 0 1 .361.076.614.614 0 0 1 .255.406l6.034 32.551c.062.34-.137.678-.435.737L9.66 53.99a.462.462 0 0 1-.36-.076.614.614 0 0 1-.256-.405L3.012 20.957c-.062-.34.137-.678.435-.737l50.892-10.21ZM7.619 56.4a3.46 3.46 0 0 0 2.632.532l50.893-10.21c1.902-.382 3.155-2.278 2.794-4.226l-6.033-32.55A3.596 3.596 0 0 0 56.38 7.6a3.457 3.457 0 0 0-2.631-.533L2.857 17.278C.954 17.66-.298 19.556.063 21.504l6.033 32.552A3.599 3.599 0 0 0 7.619 56.4Zm26.649-16.132a2.498 2.498 0 0 0 0-3.535 2.498 2.498 0 0 0-3.535 0 2.498 2.498 0 0 0 0 3.535 2.498 2.498 0 0 0 3.535 0Zm-7.972-4.484a1.499 1.499 0 0 1-1.239-2.343 8.936 8.936 0 0 1 5.757-3.782 8.943 8.943 0 0 1 6.745 1.397 1.5 1.5 0 1 1-1.686 2.481 6.01 6.01 0 0 0-8.336 1.59c-.29.428-.762.657-1.241.657Zm-6.218-4.044a1.495 1.495 0 0 0 2.083-.397c1.866-2.745 4.724-4.587 8.046-5.184a12.71 12.71 0 0 1 9.45 2.002 1.498 1.498 0 1 0 1.686-2.48c-7.154-4.864-16.872-3.077-21.662 3.976a1.499 1.499 0 0 0 .397 2.083Z" fill="currentColor"/></svg>
